T: Bay Tree, The
M: 3/4
L: 1/8
K: Gmaj
|: B3 B AB | ~ |: BA B3 A | ~ |: BA- AB AB | ~ not ~ |: B A2 B AB | ~~ | e2 dd- dc :| ~ not ~ ~ | e2 d d2 c :|
